X: 11643
T: Eileen Ni Riordain's
R: barndance
M: 4/4
K: Dmajor
|:DE|F2 F2 G2 FG|A2 D2 D2 DE|F2 F2 G2 FG|ABAF E2 DE|
F2 F2 G2 FG|A2 D2 D2 DE|F2 GF E2 DE|D2 F2 D2:|
|:Bc|d2 d2 B2 B2|ABAG F2 DF|A2 GF E3 F|G2 FE FDFA|
d2 d2 B2 d2|ABAG F2- FG|A2 GF EGFE|D2 A,2 D2:|

